assets/icon3.svg

<?xml version="1.0" encoding="UTF-8"?>
<svg width="104px" height="104px" viewBox="0 0 104 104" version="1.1" xmlns="http://www.w3.org/2000/svg" xmlns:xlink="http://www.w3.org/1999/xlink">
    <!-- Generator: Sketch 54.1 (76490) - https://sketchapp.com -->
    <title>icon3</title>
    <desc>Created with Sketch.</desc>
    <g id="Landing-podcast" stroke="none" stroke-width="1" fill="none" fill-rule="evenodd">
        <g id="Landing-podcast_Mobile" transform="translate(-108.000000, -4569.000000)" fill-rule="nonzero">
            <g id="topicos" transform="translate(0.000000, 4004.000000)">
                <g id="3" transform="translate(0.000000, 552.000000)">
                    <g id="icon3" transform="translate(108.000000, 13.000000)">
                        <path d="M8.66666667,104 L95.3333333,104 C100.112133,104 104,100.112133 104,95.3333333 L104,93.6 L103.987867,93.6 C103.987867,93.3954667 103.9636,93.1892 103.8908,92.9916 L93.6,65.5512 L93.6,8.66666667 C93.6,3.88786667 89.7121333,0 84.9333333,0 L19.0666667,0 C14.2878667,0 10.4,3.88786667 10.4,8.66666667 L10.4,65.5512 L0.1092,92.9916 C0.0364,93.1892 0.0121333333,93.3954667 0.0121333333,93.6 L0,93.6 L0,95.3333333 C0,100.112133 3.88786667,104 8.66666667,104 Z M95.3333333,100.533333 L8.66666667,100.533333 C5.79973333,100.533333 3.46666667,98.2002667 3.46666667,95.3333333 L37.4157333,95.3333333 L38.6412,96.5588 C38.9653333,96.8846667 39.4073333,97.0666667 39.8666667,97.0666667 L64.1333333,97.0666667 C64.5926667,97.0666667 65.0346667,96.8846667 65.3588,96.5588 L66.5842667,95.3333333 L100.533333,95.3333333 C100.533333,98.2002667 98.2002667,100.533333 95.3333333,100.533333 Z M19.0666667,3.46666667 L84.9333333,3.46666667 C87.8002667,3.46666667 90.1333333,5.79973333 90.1333333,8.66666667 L90.1333333,64.1333333 L13.8666667,64.1333333 L13.8666667,8.66666667 C13.8666667,5.79973333 16.1997333,3.46666667 19.0666667,3.46666667 Z M13.3345333,67.6 L90.6654667,67.6 L99.7654667,91.8666667 L65.8666667,91.8666667 C65.4073333,91.8666667 64.9653333,92.0486667 64.6412,92.3745333 L63.4157333,93.6 L40.5842667,93.6 L39.3588,92.3745333 C39.0346667,92.0486667 38.5926667,91.8666667 38.1333333,91.8666667 L4.23453333,91.8666667 L13.3345333,67.6 Z" id="Shape" fill="#0000EC"></path>
                        <rect id="Rectangle" fill="#0000EC" x="12.1333333" y="84.9333333" width="6.93333333" height="3.46666667"></rect>
                        <rect id="Rectangle" fill="#0000EC" x="24.2666667" y="84.9333333" width="6.93333333" height="3.46666667"></rect>
                        <rect id="Rectangle" fill="#0000EC" x="36.4" y="84.9333333" width="31.2" height="3.46666667"></rect>
                        <rect id="Rectangle" fill="#0000EC" x="72.8" y="84.9333333" width="6.93333333" height="3.46666667"></rect>
                        <rect id="Rectangle" fill="#0000EC" x="84.9333333" y="84.9333333" width="6.93333333" height="3.46666667"></rect>
                        <rect id="Rectangle" fill="#0000EC" x="13.8666667" y="78" width="10.4" height="3.46666667"></rect>
                        <rect id="Rectangle" fill="#0000EC" x="29.4666667" y="78" width="6.93333333" height="3.46666667"></rect>
                        <rect id="Rectangle" fill="#0000EC" x="41.6" y="78" width="6.93333333" height="3.46666667"></rect>
                        <rect id="Rectangle" fill="#0000EC" x="53.7333333" y="78" width="6.93333333" height="3.46666667"></rect>
                        <rect id="Rectangle" fill="#0000EC" x="65.8666667" y="78" width="6.93333333" height="3.46666667"></rect>
                        <rect id="Rectangle" fill="#0000EC" x="78" y="78" width="12.1333333" height="3.46666667"></rect>
                        <rect id="Rectangle" fill="#0000EC" x="24.2666667" y="71.0666667" width="3.46666667" height="3.46666667"></rect>
                        <rect id="Rectangle" fill="#0000EC" x="17.3333333" y="71.0666667" width="3.46666667" height="3.46666667"></rect>
                        <rect id="Rectangle" fill="#0000EC" x="32.9333333" y="71.0666667" width="6.93333333" height="3.46666667"></rect>
                        <rect id="Rectangle" fill="#0000EC" x="45.0666667" y="71.0666667" width="6.93333333" height="3.46666667"></rect>
                        <rect id="Rectangle" fill="#0000EC" x="57.2" y="71.0666667" width="6.93333333" height="3.46666667"></rect>
                        <rect id="Rectangle" fill="#0000EC" x="69.3333333" y="71.0666667" width="6.93333333" height="3.46666667"></rect>
                        <rect id="Rectangle" fill="#0000EC" x="81.4666667" y="71.0666667" width="6.93333333" height="3.46666667"></rect>
                        <path d="M19.0666667,60.6666667 L84.9333333,60.6666667 C85.8901333,60.6666667 86.6666667,59.8901333 86.6666667,58.9333333 L86.6666667,8.66666667 C86.6666667,7.70986667 85.8901333,6.93333333 84.9333333,6.93333333 L19.0666667,6.93333333 C18.1098667,6.93333333 17.3333333,7.70986667 17.3333333,8.66666667 L17.3333333,58.9333333 C17.3333333,59.8901333 18.1098667,60.6666667 19.0666667,60.6666667 Z M20.8,10.4 L83.2,10.4 L83.2,57.2 L20.8,57.2 L20.8,10.4 Z" id="Shape" fill="#0000EC"></path>
                        <path d="M29.9745333,14.3745333 L24.7745333,19.5745333 C24.0968,20.2522667 24.0968,21.3477333 24.7745333,22.0254667 L29.9745333,27.2254667 L32.4254667,24.7745333 L28.4509333,20.8 L32.4254667,16.8254667 L29.9745333,14.3745333 Z" id="Path" fill="#00F3BB"></path>
                        <path d="M49.7588,14.3745333 L47.3078667,16.8254667 L51.2824,20.8 L47.3078667,24.7745333 L49.7588,27.2254667 L54.9588,22.0254667 C55.6365333,21.3477333 55.6365333,20.2522667 54.9588,19.5745333 L49.7588,14.3745333 Z" id="Path" fill="#00F3BB"></path>
                        <path d="M52.5078667,38.6412 L47.3078667,43.8412 C46.6301333,44.5189333 46.6301333,45.6144 47.3078667,46.2921333 L52.5078667,51.4921333 L54.9588,49.0412 L50.9842667,45.0666667 L54.9588,41.0921333 L52.5078667,38.6412 Z" id="Path" fill="#00F3BB"></path>
                        <path d="M72.2921333,38.6412 L69.8412,41.0921333 L73.8157333,45.0666667 L69.8412,49.0412 L72.2921333,51.4921333 L77.4921333,46.2921333 C78.1698667,45.6144 78.1698667,44.5189333 77.4921333,43.8412 L72.2921333,38.6412 Z" id="Path" fill="#00F3BB"></path>
                        <polygon id="Rectangle" fill="#00F3BB" transform="translate(61.531080, 45.067707) rotate(-63.434949) translate(-61.531080, -45.067707) " points="55.7176567 43.334426 67.3445033 43.334426 67.3445033 46.8009873 55.7176567 46.8009873"></polygon>
                        <rect id="Rectangle" fill="#00F3BB" x="41.6" y="48.5333333" width="3.46666667" height="3.46666667"></rect>
                        <rect id="Rectangle" fill="#00F3BB" x="34.6666667" y="48.5333333" width="3.46666667" height="3.46666667"></rect>
                        <rect id="Rectangle" fill="#00F3BB" x="27.7333333" y="48.5333333" width="3.46666667" height="3.46666667"></rect>
                        <path d="M65.8666667,22.5333333 L62.4,22.5333333 L62.4,26 L64.1333333,26 L64.1333333,31.2 L67.6,31.2 L67.6,24.2666667 C67.6,23.3098667 66.8234667,22.5333333 65.8666667,22.5333333 Z" id="Path" fill="#00F3BB"></path>
                        <rect id="Rectangle" fill="#00F3BB" x="62.4" y="15.6" width="3.46666667" height="3.46666667"></rect>
                    </g>
                </g>
            </g>
        </g>
    </g>
</svg>

<svg xmlns="http://www.w3.org/2000/svg" viewBox="0 0 104 104">
  <g fill="none" fill-rule="nonzero">
    <path fill="#0000EC" d="M8.667 104h86.666c4.78 0 8.667-3.888 8.667-8.667V93.6h-.012c0-.205-.024-.41-.097-.608L93.6 65.552V8.666C93.6 3.887 89.712 0 84.933 0H19.067C14.287 0 10.4 3.888 10.4 8.667V65.55L.11 92.991a1.747 1.747 0 00-.098.609H0v1.733C0 100.113 3.888 104 8.667 104zm86.666-3.467H8.667a5.206 5.206 0 01-5.2-5.2h33.949l1.225 1.226c.324.326.766.508 1.226.508h24.266c.46 0 .902-.182 1.226-.508l1.225-1.226h33.95c0 2.867-2.334 5.2-5.2 5.2zM19.067 3.467h65.866c2.867 0 5.2 2.333 5.2 5.2v55.466H13.867V8.667c0-2.867 2.333-5.2 5.2-5.2zM13.335 67.6h77.33l9.1 24.267H65.867c-.46 0-.902.182-1.226.508L63.416 93.6H40.584l-1.225-1.225a1.729 1.729 0 00-1.226-.508H4.235l9.1-24.267z"/>
    <path fill="#0000EC" d="M12.133 84.933h6.933V88.4h-6.933zM24.267 84.933H31.2V88.4h-6.933zM36.4 84.933h31.2V88.4H36.4zM72.8 84.933h6.933V88.4H72.8zM84.933 84.933h6.933V88.4h-6.933zM13.867 78h10.4v3.467h-10.4zM29.467 78H36.4v3.467h-6.933zM41.6 78h6.933v3.467H41.6zM53.733 78h6.933v3.467h-6.933zM65.867 78H72.8v3.467h-6.933zM78 78h12.133v3.467H78zM24.267 71.067h3.467v3.467h-3.467zM17.333 71.067H20.8v3.467h-3.467zM32.933 71.067h6.933v3.467h-6.933zM45.067 71.067H52v3.467h-6.933zM57.2 71.067h6.933v3.467H57.2zM69.333 71.067h6.933v3.467h-6.933zM81.467 71.067H88.4v3.467h-6.933zM19.067 60.667h65.866c.957 0 1.734-.777 1.734-1.734V8.667c0-.957-.777-1.734-1.734-1.734H19.067c-.957 0-1.734.777-1.734 1.734v50.266c0 .957.777 1.734 1.734 1.734zM20.8 10.4h62.4v46.8H20.8V10.4z"/>
    <path fill="#00F3BB" d="M29.975 14.375l-5.2 5.2a1.731 1.731 0 000 2.45l5.2 5.2 2.45-2.45-3.974-3.975 3.974-3.975-2.45-2.45zM49.759 14.375l-2.451 2.45 3.974 3.975-3.974 3.975 2.45 2.45 5.2-5.2a1.731 1.731 0 000-2.45l-5.2-5.2zM52.508 38.641l-5.2 5.2a1.731 1.731 0 000 2.451l5.2 5.2 2.45-2.45-3.974-3.975 3.975-3.975-2.451-2.45zM72.292 38.641l-2.45 2.451 3.974 3.975-3.975 3.974 2.451 2.451 5.2-5.2a1.731 1.731 0 000-2.45l-5.2-5.2zM57.38 49.492l5.2-10.4 3.101 1.55-5.2 10.4zM41.6 48.533h3.467V52H41.6zM34.667 48.533h3.467V52h-3.467zM27.733 48.533H31.2V52h-3.467zM65.867 22.533H62.4V26h1.733v5.2H67.6v-6.933c0-.957-.777-1.734-1.733-1.734zM62.4 15.6h3.467v3.467H62.4z"/>
  </g>
</svg>
